X:827
T:Dumfries House
S:Sessions, etc
Z:Nigel Gatherer
M:4/4
L:1/8
K:G
D    | G3  G2g | dBG GAB | cBE EFG | AFD DEF |
       G3  G2g | dBG GAB | cEA FEF | G3  G2 :|
B/c/ | dBd dBd | gag f2e | dBd dcB | AFD D2
B/c/ | dBd dBd | gag f2e | dcB AGF | G3  G2
B/c/ | dBd dBd | gag f2e | dBd dcB | AFD D2
B/c/ | dBd ece | fdf gfe | dcB Agf | g3  G2 ||
